X:7697
T:Tanz
T:Mutterlein mein, wie soll ich thon
C:Erasmus Widmann, arr. Frank Nordberg
O:Germany
N:First published 1611
R:Tanz, allemande
Z:Transcribed by Frank Nordberg - http://www.musicaviva.com
%http://abc.musicaviva.com/tunes/widmann-erasmus/widmann-mutter/widmann-mutter-2m.abc
V:1 Program 1 40 %Violin
V:2 Program 1 41 %Viola
M:C|
L:1/4
Q:1/4=144
K:C
V:1
cB/A/Gc|d/e/f/d/e>d|cB/A/Gc|cBc2::f>fed|d^cdd|
V:2
CD/D/EC|GGC2|CD/D/EC|GGC2::D>DA_B|GADG|
%
V:1
e>fgc|cB/A/BG|cB/A/Gc|d/e/f/d/e>d|cB/A/Gc|cBc2:|
V:2
C>DEF|CDGE|CD/D/EC|GGC2|CD/D/EC|GGC2:|
W:
W:
W:  From Musica Viva - http://www.musicaviva.com
W:  the Internet center for free sheet music downloads.
